X: 411
T: Bir Sebeple Gücenmişsin...
C: Kazasker Mustafa İzzet Efendi
O: Turkey
F: http://compmusic.upf.edu/node/140
N: evic--sarki--agiraksak--bir_sebeple--kazasker_mustafa_izzet_efendi
N: makam= evic
N: form= sarki
N: usul= agiraksak = 9/4
M: 9/4
L: 1/16
K: C _1/4B ^f ^c 
Q: 1/4=72
%%MIDI tuningsystem comma53
gf^3/4ef g2a2 ^3/4f3/2=e/fg e3/2d/e^1/4f d3/2c/de c3/2B/cd B3/2A/Bc A2B2 A2G2  | 
w:  ARANAĞME  | 
FF2G A2_2/4B2 =cde=f edcB A3_1/4B AGGF F4 d3/2^c/d^3/4e ^f4  | 
w:   | 
gf^3/4ef g2a2 ^3/4f3/2=e/fg e3/2d/e^1/4f d3/2c/de c3/2B/cd B3/2A/Bc A2B2 A2G2  | 
w:  ARANAĞME  | 
FF2G A2_2/4B2 =cde=f edcB A3_1/4B AGGF F6^fg f^3/4ede  | 
w:   | 
f3/2^3/4e/fg fga2 a3g g3f f3e {f}d4 f4 g4 z4  | \
w:  *  *  *  *  *  *  *  Bir  *  se *  bep *  *  *  le   | 
g2b2 a2g2 g2a2 g2f2 ^3/4e2f2 g3/2a/gf e4 f6z2  | 
w:  gü *  *  *  cen *  *  *  miş *  *  *  *  *  sin   | 
f4 g4 g2a2 g2f2 g3/2a/gf e4 =b3a {b}g4 _1/4b4  | \
w:  sen  *  *  *  *  *  *  *  *  *  *  sen  *  *  *  ba  | 
a3/2b/a{b}g f2a2 g3f ^3/4e2f2 e2f2 gagf f4 fgfe d3/2c/de  | 
w:  na   *  *  *  *  *  *  *  *  *  *  *  *  *  *  *  *  *  SAZ  | 
f4 fg^3/4ef g2gf =e2f2 g8 g3/2a/g^3/4f e2a2 g2=f2  | \
w:  *  *  *  *  *  *  Söy *  *  le  sul tâ  | 
e2d2 =c2_2/4B4cd c2B2 c2d4a2 (3g2=f2e2 (3d2c2_1/4B2 A4  | 
w:  *  *  *  *  nım  *  *  ne  et *  *  tim   | 
d2=cd dedc c2Bc d2cB B2AB c2BA ABAG F4 B4  | 
w:  ben  *  *  *  *  *  *  *  *  *  *  *  *  *  *  *  *  *  *  *  *  *  *  *  sa  | 
B2AB =c2BA A2GF d4 dcBA AGGF F4 z2fg f^3/4ede  | 
w:  na  *  *  *  *  *  *  *  *  a  câ *  *  *  *  *  *  *  nım   SAZ  | 
f4 fg^3/4ef g2gf =e2f2 g8 g3/2a/g^3/4f e2a2 g2=f2  | \
w:  *  *  *  *  *  *  Söy *  *  le  sul tâ  | 
e2d2 =c2_2/4B4cd c2B2 c2d4a2 (3g2=f2e2 (3d2c2_1/4B2 A4  | 
w:  *  *  *  *  nım  *  *  ne  et *  *  tim   | 
d2=cd dedc c2Bc d2cB B2AB c2BA ABAG F4 B4  | 
w:  ben  *  *  *  *  *  *  *  *  *  *  *  *  *  *  *  *  *  *  *  *  *  *  *  sa  | 
B2AB =c2B{c}A {B}A2GF d4 dcBA AGGF F4 z2fg agfg  | 
w:  na  *  *  *  *  *  *  *  *  *  *  a  câ *  *  *  *  *  *  *  nım   SAZ  | 
a3b agfg a2ag f2g2 a6d'2 d'3/2e'/d'=c' c'3/2d'/c'=b b3/2c'/ba  | 
w:  *  *  *  *  *  *  *  İn *  *  fi â *  lin   | 
a2=c'b agf^3/4e f2ab a2b2 {b}a2g4f2 agfe f3e/d/ c/d/e/f/g2  | 
w:  *  *  *  *  *  *  *  *  sak *  *  la *  ma  *  *  ey  *  *  *  *  SAZ  | 
^3/4f4 g4 g2a2 g2f2 g3/2a/g{a}f e4 b3/2=c'/b{c'}a g4 b4  | \
w:  bî  *  *  *  *  *  *  *  *  *  *  *  bî *  *  *  *  *  ve  | 
a3g f2a2 g3f ^3/4e2f2 e2f2 gagf f4 fgfe d3/2c/de  | 
w:  fâ   *  *  *  *  *  *  *  *  *  *  *  *  *  *  SAZ  | 
f4 fg^3/4ef g2gf =e2f2 g8 g3/2a/g^3/4f e2a2 g2=f2  | \
w:  *  *  *  *  *  *  Söy *  *  le  sul tâ  | 
e2d2 =c2_2/4B4cd c2B2 c2d4a2 (3g2=f2e2 (3d2c2_1/4B2 A4  | 
w:  *  *  *  *  nım  *  *  ne  et *  *  tim   | 
d2=cd dedc c2Bc d2cB B2AB c2BA ABAG F4 B4  | 
w:  ben  *  *  *  *  *  *  *  *  *  *  *  *  *  *  *  *  *  *  *  *  *  *  *  sa  | 
B2AB =c2BA A2GF d4 dcBA AGGF F4 z2fg f^3/4ede  | 
w:  na  *  *  *  *  *  *  *  *  a  câ *  *  *  *  *  *  *  nım   SAZ  | 
f4 fg^3/4ef g2gf =e2f2 g8 g3/2a/g^3/4f e2a2 g2=f2  | \
w:  *  *  *  *  *  *  Söy *  *  le  sul tâ  | 
e2d2 =c2_2/4B4cd c2B2 c2d4a2 (3g2=f2e2 (3d2c2_1/4B2 A4  | 
w:  *  *  *  *  nım  *  *  ne  et *  *  tim   | 
d2=cd dedc c2Bc d2cB B2AB c2BA ABAG F4 B4  | 
w:  ben  *  *  *  *  *  *  *  *  *  *  *  *  *  *  *  *  *  *  *  *  *  *  *  sa  | 
B2AB =c2B{c}A {B}A2GF d4 dcBA AGGF F4 z8  | |


